source/img/link-arrow.svg

<svg width="19" height="20" viewBox="0 0 19 20" fill="none" xmlns="http://www.w3.org/2000/svg">
<path d="M18.8037 9.53898L9.63752 0.200536C9.50669 0.0670326 9.35582 0 9.18531 0C9.01501 0 8.86434 0.0670326 8.73324 0.200536L7.74967 1.20252C7.61856 1.33609 7.55312 1.48953 7.55312 1.66346C7.55312 1.83739 7.61856 1.99083 7.74967 2.12441L15.4799 10.0001L7.74973 17.8761C7.61863 18.0097 7.55318 18.1634 7.55318 18.3368C7.55318 18.5107 7.61863 18.6644 7.74973 18.798L8.73331 19.7997C8.86434 19.9334 9.01501 20 9.18538 20C9.3561 20 9.50676 19.9332 9.63752 19.7997L18.8037 10.4612C18.9347 10.3277 19.0001 10.1739 19.0001 10.0002C19.0001 9.82656 18.9347 9.67284 18.8037 9.53898Z" fill="#1991EB"/>
<path d="M11.4473 10.0002C11.4473 9.82656 11.382 9.67277 11.2505 9.53898L2.08489 0.200536C1.95385 0.0670326 1.80298 0 1.63254 0C1.4621 0 1.31116 0.0670326 1.18012 0.200536L0.196756 1.20259C0.0654476 1.33616 0 1.4896 0 1.66353C0 1.83747 0.0654476 1.9909 0.196756 2.12448L7.92674 10.0002L0.196756 17.8761C0.0654476 18.0097 0 18.1634 0 18.3368C0 18.5107 0.0654476 18.6644 0.196756 18.798L1.18006 19.7997C1.31116 19.9334 1.46203 20 1.63247 20C1.80291 20 1.95378 19.9332 2.08489 19.7997L11.2505 10.4612C11.382 10.3277 11.4473 10.1739 11.4473 10.0002Z" fill="#1991EB"/>
</svg>

<svg width="19" height="20" fill="none" xmlns="http://www.w3.org/2000/svg"><path d="M18.804 9.539L9.638.201A.616.616 0 0 0 9.185 0a.617.617 0 0 0-.452.2L7.75 1.204a.639.639 0 0 0 0 .921L15.48 10l-7.73 7.876a.64.64 0 0 0 0 .922l.983 1.002c.131.133.282.2.452.2a.619.619 0 0 0 .453-.2l9.166-9.339a.64.64 0 0 0 0-.922z" fill="#1991EB"/><path d="M11.447 10a.639.639 0 0 0-.196-.461L2.085.201A.617.617 0 0 0 1.633 0a.617.617 0 0 0-.453.2L.197 1.204a.638.638 0 0 0 0 .921L7.927 10l-7.73 7.876a.639.639 0 0 0 0 .922L1.18 19.8c.131.133.282.2.452.2a.62.62 0 0 0 .453-.2l9.166-9.339a.638.638 0 0 0 .196-.46z" fill="#1991EB"/></svg>
